X:122
T: ZU AUGSBURG STEHT EIN HOHES HAUS
N: B0153
O: Europa, Mitteleuropa, Deutschland
R: Ballade, Romanze
M: 4/4
L: 1/8
K: G
D2 | G3FG2A2 | B2cAd2z
c | B3BBAdc | B4z2
D2 | G3FG2A2 | B2cAd2z
c | B3BBAdc | B4z2
d2 | A2B2A2zd | A2cBA2z
A | B4cBce | d4z2
e2 | d4cBcA | G4z2

